assets/images/header/about.svg

<svg width="21" height="20" viewBox="0 0 21 20" fill="none" xmlns="http://www.w3.org/2000/svg">
<path d="M10.7148 20C5.20115 20 0.714844 15.5137 0.714844 10C0.714844 4.4863 5.20115 0 10.7148 0C16.2285 0 20.7148 4.4863 20.7148 10C20.7148 15.5137 16.2285 20 10.7148 20ZM10.7148 1.81829C6.20399 1.81829 2.53313 5.48911 2.53313 10C2.53313 14.5109 6.20395 18.1817 10.7148 18.1817C15.2257 18.1817 18.8966 14.5109 18.8966 10C18.8966 5.48911 15.2257 1.81829 10.7148 1.81829Z" fill="#A8A8B2"/>
<path d="M10.7137 15.4551C10.2119 15.4551 9.80469 15.0478 9.80469 14.5461V9.18263C9.80469 8.68085 10.2119 8.2736 10.7137 8.2736C11.2155 8.2736 11.6227 8.68085 11.6227 9.18263V14.5461C11.6227 15.0478 11.2155 15.4551 10.7137 15.4551Z" fill="#A8A8B2"/>
<path d="M11.6227 5.4541C11.6227 4.95201 11.2158 4.54507 10.7137 4.54507C10.2116 4.54507 9.80469 4.95201 9.80469 5.4541C9.80469 5.95618 10.2116 6.36328 10.7137 6.36328C11.2158 6.36328 11.6227 5.95618 11.6227 5.4541Z" fill="#A8A8B2"/>
</svg>

<svg width="21" height="20" fill="none" xmlns="http://www.w3.org/2000/svg"><path d="M10.715 20c-5.514 0-10-4.486-10-10s4.486-10 10-10 10 4.486 10 10-4.486 10-10 10Zm0-18.182C6.204 1.818 2.533 5.49 2.533 10c0 4.51 3.671 8.182 8.182 8.182 4.51 0 8.182-3.671 8.182-8.182 0-4.51-3.671-8.182-8.182-8.182Z" fill="#A8A8B2"/><path d="M10.714 15.455a.91.91 0 0 1-.91-.909V9.183a.91.91 0 0 1 1.819 0v5.363a.91.91 0 0 1-.91.91ZM11.623 5.454a.909.909 0 1 0-1.818 0 .909.909 0 0 0 1.818 0Z" fill="#A8A8B2"/></svg>
